X:515
T:Quinn of Armagh
R:Hornpipe
C:Ed Reavy
M:4/4
L:1/8
Z:Joe Reavy
N:For Ed's longtime friend Lou Quinn, who resides in
N:Flushing, New York. He has been Ed greatest supporter
N:through the years. Lou helped to publish Ed's first book
N:of tunes in 1971.
K:D
d2|DFA<d EAce|dfeg fdBd|ceA=c BGEG|(3GED A,D GECE|
DFA<d EAce|dfeg fdBd|cbaf gece|(3ddd f2 d2:||
fg|afdf Adfa|gfge cdec|dfba gfed|(3cdc (3BcB AGFE|
DFA<d EAce|dfdg fdBd|cbaf gece|(3ddd f2 d2:||
